!!!COM: Bach, Johann Sebastian
!!!CDT: 1685/3//-1750/7/28/
!!!OTL@@DE: Wie schoen leuchtet der Morgenstern
!!!OTL@EN: How bright appears the morning star
!!!AGN: 4-Part Chorale
!!!SCT: BH 323
!!!SCT: BWV 172
**harm	**root	**kern	**kern	**kern	**kern
!	!	!bass	!tenor	!alto	!soprno
*	*Iorgan	*Iorgan	*Iorgan	*Iorgan	*Iorgan
*M4/4	*M4/4	*M4/4	*M4/4	*M4/4	*M4/4
*met(c)	*met(c)	*met(c)	*met(c)	*met(c)	*met(c)
*MM56	*MM56	*MM56	*MM56	*MM56	*MM56
*k[b-e-a-d-g-]	*k[b-e-a-d-g-]	*k[b-e-a-d-g-]	*k[b-e-a-d-g-]	*k[b-e-a-d-g-]	*k[b-e-a-d-g-]
*D-:	*D-:	*D-:	*D-:	*D-:	*D-:
*>[A,A,B]	*>[A,A,B]	*>[A,A,B]	*>[A,A,B]	*>[A,A,B]	*>[A,A,B]
*>A	*>A	*>A	*>A	*>A	*>A
I	4FF	4D-	4F	4A-	4d-
=1	=1	=1	=1	=1	=1
Vb	4CC	4C	4E-	4A-	8a-
.	.	.	.	.	8g-
I	8FF	8D-	8D-	4A-	8f
Vb	8CC	8C	8E-	.	8e-
vi	4DD	4BB-	8F	8B-	4d-
.	.	.	8G-	8c	.
Ib	4FF	4FF	4A-	4d-	4a-
=2	=2	=2	=2	=2	=2
IV	4BB-	8GG-	8A-	4d-	4b-
.	.	8AA-	16G-	.	.
.	.	.	16F	.	.
IVb	4BB-	8BB-	8G-	4d-	4b-
.	.	8C	8G-	.	.
I;	4FF;	4D-;	4F;	4d-;	4a-;
Vb	4CC	4C	4A-	4e-	4a-
=3	=3	=3	=3	=3	=3
vib	4DD	4D-	4A-	4f	4b-
v/iii	4EE	4E-	4G	4e-	4cc
Ib	8FF	8F	8A-	8d-	4dd-
V7b/V	8GG	8G	8B-	8e-	.
V	8CC	8A-	8c	4e-	4cc
Vb	8CC	8C	8E-	.	.
=4	=4	=4	=4	=4	=4
vib	4DD	8D-	8F	4d-	4b-
.	.	8BB-	8B-	.	.
V7/V	4GG	4E-	4G	4d-	4b-
V;	4CC;	4AA-;	4A-;	4c;	4a-;
I	4FF	4D-	4A-	4d-	4f
=5	=5	=5	=5	=5	=5
IV	4BB-	4GG-	8G-	4d-	4b-
.	.	.	8F	.	.
V	4CC	4AA-	4E-	4c	4a-
IVb	8BB-	8BB-	8B-	8d-	4g-
V7b	8CC	8C	8A-	8e-	.
I	4FF	8D-	4A-	4d-	4f
.	.	8GG-	.	.	.
=6	=6	=6	=6	=6	=6
V	2CC	2AA-	2A-	4d-	2e-
.	.	.	.	4c	.
I;	4FF;	4DD-;	4A-;	4d-;	4d-;
=:|!	=:|!	=:|!	=:|!	=:|!	=:|!
*>B	*>B	*>B	*>B	*>B	*>B
r	4r	4r	4r	4r	4r
=7	=7	=7	=7	=7	=7
Vb	2CC	2C	2A-	2e-	2a-
I;	2FF;	2D-;	2A-;	2f;	2f;
=8	=8	=8	=8	=8	=8
V	2CC	2AA-	2A-	2e-	2a-
I;	2FF;	2DD-;	2A-;	2d-;	2f;
!!linebreak: 2
=9	=9	=9	=9	=9	=9
I	4FF	8DD-	4A-	4d-	4f
.	.	8EE-	.	.	.
Ib	4FF	8FF	4A-	4d-	4f
.	.	8GG-	.	.	.
V	4CC	8AA-	4A-	8c	4e-
.	.	8BB-	.	8B-	.
Vb	4CC	8C	8A-	4A-	4e-
.	.	8AA-	8G-	.	.
=10	=10	=10	=10	=10	=10
I	4FF	8D-	8F	4A-	4f
.	.	8E-	8G-	.	.
Ib	4FF	8F	4A-	8A-	4f
.	.	8G-	.	8B-	.
V	4CC	8A-	4A-	4c	4e-
.	.	8G-	.	.	.
Vc	4CC	8F	4A-	4c	4e-
.	.	8E-	.	.	.
=11	=11	=11	=11	=11	=11
I	4FF	8D-	4A-	4d-	4f
.	.	8C	.	.	.
vi	4DD	8BB-	4B-	4d-	4f
.	.	8AA-	.	.	.
ii7b	4GG	8GG-	4B-	4d-	2e-
.	.	8EE-	.	.	.
V	4CC	4AA-	8A-	4c	.
.	.	.	8G-	.	.
=12	=12	=12	=12	=12	=12
I;	2FF;	2DD-;	2F;	2d-;	2d-;
vi	4DD	8BBB-	8B-	4f	4dd-
.	.	8DD-	8A-	.	.
viiob	4EE	8EE-	4G-	4e-	4cc
.	.	8FF	.	.	.
=13	=13	=13	=13	=13	=13
IV	4BB-	4GG-	8G-	4d-	4b-
.	.	.	8F	.	.
V	4CC	4AA-	4E-	4c	4a-
IVb	4BB-	8BB-	8D-	4B-	4g-
.	.	8C	8E-	.	.
I	8FF	8D-	8F	4A-	4f
Ib	8FF	8FF	8A-	.	.
=14	=14	=14	=14	=14	=14
iib	4GG	8GG-	8.G-	4B-	2e-
.	.	8EE-	.	.	.
.	.	.	16F	.	.
V	4CC	4AA-	4E-	4A-	.
I;	4FF;	4DD-;	4F;	4A-;	4d-;
==	==	==	==	==	==
*-	*-	*-	*-	*-	*-
!!chor2scor: -l 2 -o %b.pmx
!!!YEC: Copyright 1994, David Huron
!!!YEC: Changes/Additions 2001 by Craig Stuart Sapp
!!!YEN: United States of America
!!!SMA: 371 Bach Chorales, edited by Ludwig Erk, C.F. Peters
!!!PDT: 1850, 1865
!!!ONB: Harmony and Root analysis done manually
